!!!OTL: Bedenken gegen das Heiraten (185), S.404
!!!id: T0363
**kern
*clefG2
*k[b-]
*F:
{8f
=1
8a
8a
8a
16g
16g
=2
4b-
8a}
=3
{8cc
=4
8a
8f
8g
8g
=5
4f}
8r
=6
{8f
=7
8a
8a
8a
8g
=8
4b-
8a}
=9
{8cc
=10
8a
8f
8g
8g
=11
4f}
8r
=12
{8f
=13
8cc
8cc
8dd
8dd
=14
4cc}
8r
=15
{8f
=16
8cc
8cc
8dd
8dd
=17
4cc}
8r
=18
{8a
=19
8f
8a
8a
8g
=20
4b-
8a}
=21
{8a
=22
8f
8a
8a
8g
=23
4b-
8a}
=24
{8a
=25
8cc
8f
8g
8g
=26
4f}
8r
==
*-
!!!minrhy: 16
!!!meters: 2/4 ]  ZZ[9
!!!cut: Bedenken gegen das Heiraten (185), S.404
!!!reg: Luxemburg
!!!trd: Singendes Volk, Esch-Alzette, 1937 posth.
!!!rhy1: X_  X_X_X_XX  X__X_
!!!rhy2: X_  X_X_X_X_  X__0_
!!!key: T0363  16  F 2/4 ]  ZZ[9
!!!mod: SECHSTONSKALA DUR ?]  AMBITUS[6
!!!kad: 313155331
!!!akz: 34_31_34_31_55_55_14_14_51_
!!!fot: 'a__b__av_b__c__c__aw_aw_d__
!!!for: 'a__b__b__b__b__b__b__b__b__
!!!fok: '/__\__/__\__/__/__V__V__^d_
!! PHRAS[AUFTAKTIG]
!!!fkt: Hochzeits-, Ehestandslied
!!!bem: StraPen, fff Witry, 10.1.1933
!! THILL; Mathias
!! PR[23] 2K[6] 2G[17] 3K[8] 3G[4] 4A[2] 4Ü[0] 5A[0] 6K[0] 6G[0]
!! 7K[0] 7G[0] 8A[0] MEHR[0] SI[38] ABS[48] SR[23] SP[15]
!! ST[14] 2k[6] 2g[25] 3k[8] 3g[0] 4d[0] 4ü[0] 5d[0] 6k[0] 6g[0]
!! 7k[0] 7g[0] 8d[0] mehr[0] si[40] dm[-2] sr[31] sp[8]
!! 1F[19] 2F[63] 3F[17] 4F[0] LF[0] 2P[0] 3P[0] 4P[0] TRI[0] DF[3] AB[52]
!! TF[0] U3K[0] U3[0] U4[0] U4Ü[0] U5[4] U6K[0] U6[0] U7K[0] U7[0]
!! N1[12] N2K[0] N2[29] N3K[0] N3[35] N4[14] N4Ü[0] N5[6] N6K[0] N6[0]
!!!n7k: 0] N7[0] O1[0] O2K[0] O2[0] O3K[0] O3[0] HÖ[0
